; generated by SuperSlicer 2.5.59 on 2023-07-16 at 03:38:19 UTC


;
;

;
;
; 

; external perimeters extrusion width = 0.66mm
; perimeters extrusion width = 0.69mm
; infill extrusion width = 0.66mm
; solid infill extrusion width = 0.69mm
; top infill extrusion width = 0.66mm
; support material extrusion width = 0.60mm
; first layer extrusion width = 1.01mm

; object:{"name":"smart_compact_temp_calibration","id":"smart_compact_temp_calibration id:0 copy 0","object_center":[110.000000,109.900000,0.000000],"boundingbox_center":[110.000000,109.900000,67.500000],"boundingbox_size":[66.731249,7.700000,135.000000]}
EXCLUDE_OBJECT_DEFINE NAME=smart_compact_temp_calibration_id_0_copy_0 CENTER=110.000000,109.900000 POLYGON=[[76.634376,108.358048],[76.653272,108.338432],[76.703080,108.289328],[76.733824,108.259512],[76.810928,108.187936],[76.965424,108.054656],[77.007128,108.022296],[77.419328,107.722136],[77.570376,107.629144],[78.236080,107.269648],[78.302528,107.238752],[79.023728,106.946400],[79.222624,106.878032],[79.837176,106.693928],[80.015824,106.647672],[80.311632,106.577472],[80.359472,106.566592],[80.400120,106.557632],[80.610120,106.514384],[80.613568,106.513704],[80.678672,106.500880],[80.833776,106.472144],[80.890472,106.462136],[81.056376,106.434192],[81.251376,106.403656],[81.337480,106.391536],[81.644824,106.351344],[81.714872,106.343192],[81.783568,106.335568],[82.245728,106.292840],[82.291032,106.289448],[82.413872,106.280984],[82.477776,106.276976],[82.507328,106.275224],[82.555480,106.272480],[82.572280,106.271568],[82.661824,106.266912],[82.782424,106.261720],[82.918624,106.256928],[92.004656,106.049992],[114.504656,106.049992],[143.365632,106.250000],[143.365632,113.750000],[83.322128,113.750000],[82.918624,113.743072],[82.782424,113.738280],[82.661824,113.733088],[82.572280,113.728432],[82.549328,113.727184],[82.491728,113.723864],[82.477776,113.723024],[82.413128,113.718968],[82.355672,113.715144],[82.291032,113.710560],[82.245728,113.707160],[81.949776,113.681528],[81.714872,113.656808],[81.644824,113.648656],[81.426128,113.621344],[81.262768,113.597712],[81.058176,113.566568],[80.882224,113.536424],[80.833776,113.527856],[80.784424,113.518848],[80.607576,113.485136],[80.541728,113.471976],[80.396072,113.441496],[80.364576,113.434528],[80.322280,113.424872],[80.025424,113.354800],[79.700680,113.268608],[79.336480,113.159264],[78.789432,112.966568],[78.728680,112.943096],[78.007928,112.618336],[77.965928,112.596600],[77.322720,112.212496],[77.312072,112.205944],[77.028728,111.996712],[76.848128,111.845384],[76.837776,111.836200],[76.751224,111.756960],[76.664976,111.673880],[76.638120,111.645872],[76.634376,108.358048]]
; plater:{"center":[110.000000,109.900000,0.000000],"boundingbox_center":[110.000000,109.900000,67.500000],"boundingbox_size":[66.731249,7.700000,135.000000]}

;TYPE:Custom
M117
 M190 S0
 M109 S0
PRINT_START EXTRUDER_TEMP=250 BED_TEMP=85
M107
G21 ; set units to millimeters
G90 ; use absolute coordinates
M82 ; use absolute distances for extrusion
G92 E0
; Filament gcode
;_TOOLCHANGE 0
M107
;LAYER_CHANGE
;Z:0.48
;HEIGHT:0.48
TIMELAPSE_TAKE_FRAME
G10 ; retract
G1 Z0.48 F10500
G92 E0
G1 X66.934 Y89.198
G11 ; unretract
G92 E0
;TYPE:Skirt
;WIDTH:1.014
G1 F900
G3 X69.642 Y88.074 I3.205 J3.896 E.54086
G1 X141.473 Y88.083 E13.59962
G3 X144.062 Y89.187 I-.59 J4.971 E14.11832
G1 X145.989 Y91.142 E14.61737
G3 X146.811 Y93.273 I-5.082 J3.184 E15.03515
G1 X146.811 Y126.292 E21.03784
G3 X145.985 Y128.62 I-5.008 J-.467 E21.49155
G1 X144.075 Y130.602 E21.99195
G3 X141.367 Y131.726 I-3.205 J-3.896 E22.53276
G1 X69.632 Y131.726 E35.57402
G3 X67.304 Y130.9 I.467 J-5.008 E36.02772
G1 X65.322 Y128.99 E36.52812
G3 X64.198 Y126.282 I3.896 J-3.205 E37.06893
G1 X64.198 Y93.508 E43.02718
G3 X65.024 Y91.18 I5.008 J.467 E43.48088
G1 X66.872 Y89.263 E43.96493
G1 X67.525 Y89.898 F10500
G1 F900
G1 X67.554 Y89.868 E43.97256
G3 X69.681 Y88.985 I2.543 J3.124 E44.39714
G1 X141.43 Y88.994 E57.44107
G3 X143.448 Y89.862 I-.522 J3.994 E57.84554
G1 X145.246 Y91.672 E58.30933
G3 X145.9 Y93.318 I-4.581 J2.772 E58.6329
G1 X145.9 Y126.247 E64.61932
G3 X145.228 Y128.11 I-3.988 J-.387 E64.98306
G1 X143.455 Y129.932 E65.44529
G3 X141.328 Y130.815 I-2.543 J-3.124 E65.86984
G1 X69.677 Y130.815 E78.89593
G3 X67.814 Y130.143 I.387 J-3.988 E79.25967
G1 X65.992 Y128.37 E79.7219
G3 X65.109 Y126.243 I3.124 J-2.543 E80.14645
G1 X65.109 Y93.553 E86.08954
G3 X65.781 Y91.69 I3.988 J.387 E86.45328
G1 X67.462 Y89.962 E86.89151
G1 X68.111 Y90.6 F10500
G1 F900
G1 X68.171 Y90.539 E86.90702
G3 X69.722 Y89.896 I1.893 J2.373 E87.21625
G1 X141.384 Y89.905 E100.24431
G3 X142.836 Y90.537 I-.457 J3.03 E100.53553
G1 X144.513 Y92.215 E100.96685
G3 X144.989 Y93.363 I-4.839 J2.677 E101.19322
G1 X144.989 Y126.202 E107.16337
G3 X144.475 Y127.594 I-3.051 J-.336 E107.43572
G1 X142.838 Y129.261 E107.86048
G3 X141.287 Y129.904 I-1.893 J-2.373 E108.16969
G1 X69.722 Y129.904 E121.18019
G3 X68.33 Y129.39 I.336 J-3.051 E121.45255
G1 X66.663 Y127.753 E121.8773
G3 X66.02 Y126.202 I2.373 J-1.893 E122.18652
G1 X66.02 Y93.598 E128.11401
G3 X66.534 Y92.206 I3.051 J.336 E128.38637
G1 X68.048 Y90.664 E128.77925
G1 X68.694 Y91.305 F10500
G1 F900
G1 X68.786 Y91.213 E128.80282
G3 X69.766 Y90.807 I1.25 J1.631 E128.99801
G1 X141.332 Y90.816 E142.00844
G3 X142.223 Y91.213 I-.408 J2.115 E142.18747
G1 X143.806 Y92.796 E142.59434
G1 X144.078 Y93.453 E142.72362
G1 X144.078 Y126.158 E148.66931
G3 X143.728 Y127.069 I-2.134 J-.295 E148.84834
G1 X142.223 Y128.587 E149.23694
G3 X141.243 Y128.993 I-1.25 J-1.631 E149.43213
G1 X69.766 Y128.993 E162.42636
G3 X68.855 Y128.644 I.295 J-2.134 E162.60539
G1 X67.337 Y127.138 E162.99398
G3 X66.931 Y126.158 I1.631 J-1.25 E163.18918
G1 X66.931 Y93.642 E169.1004
G3 X67.28 Y92.731 I2.134 J.295 E169.27943
G1 X68.631 Y91.369 E169.62809
G1 X69.275 Y92.013 F10500
G1 F900
G1 X69.398 Y91.889 E169.65988
G3 X69.811 Y91.718 I.749 J1.224 E169.74148
G1 X141.198 Y91.718 E182.71943
G1 X141.286 Y91.735 E182.73574
G3 X141.611 Y91.889 I-.223 J.894 E182.8015
G1 X143.034 Y93.312 E183.1673
G2 X143.167 Y93.634 I.228 J.094 E183.23771
G1 X143.167 Y126.113 E189.14233
G3 X142.996 Y126.526 I-1.396 J-.336 E189.22392
G1 X141.611 Y127.911 E189.58004
G3 X141.198 Y128.082 I-.749 J-1.225 E189.66163
G1 X69.811 Y128.082 E202.63959
G3 X69.398 Y127.911 I.336 J-1.396 E202.72118
G1 X68.013 Y126.526 E203.0773
G3 X67.842 Y126.113 I1.224 J-.749 E203.1589
G1 X67.842 Y93.687 E209.05384
G3 X68.013 Y93.274 I1.395 J.336 E209.13543
G1 X69.211 Y92.076 E209.4434
M104 S250 ; set temperature
; printing object smart_compact_temp_calibration id:0 copy 0
EXCLUDE_OBJECT_START NAME=smart_compact_temp_calibration_id_0_copy_0
G1 X69.855 Y92.721 F10500
;TYPE:Support material
G1 F900
G1 X69.947 Y92.629 E209.46693
G1 X141.062 Y92.629 E222.39562
G1 X142.256 Y93.823 E222.70248
G1 X142.256 Y125.977 E228.54816
G1 X141.062 Y127.171 E228.85502
G1 X69.947 Y127.171 E241.78372
G1 X68.753 Y125.977 E242.09058
G1 X68.753 Y93.823 E247.93626
G1 X69.792 Y92.784 E248.20324
G92 E0
G10 ; retract
G1 X141.378 Y93.267 F10500
G11 ; unretract
G1 F900
G1 X70.185 Y93.267 E12.94275
G1 X69.373 Y94.079 E13.15162
G1 X69.373 Y94.178 E13.16954
G1 X141.636 Y94.178 E26.30697
G1 X141.636 Y95.089 E26.47258
G1 X69.373 Y95.089 E39.61
G1 X69.373 Y96 E39.77562
G1 X141.636 Y96 E52.91304
G1 X141.636 Y96.911 E53.07866
G1 X69.373 Y96.911 E66.21608
G1 X69.373 Y97.822 E66.3817
G1 X141.636 Y97.822 E79.51912
G1 X141.636 Y98.733 E79.68473
G1 X69.373 Y98.733 E92.82216
G1 X69.373 Y99.644 E92.98777
G1 X141.636 Y99.644 E106.12519
G1 X141.636 Y100.555 E106.29081
G1 X69.373 Y100.555 E119.42823
G1 X69.373 Y101.466 E119.59385
G1 X141.636 Y101.466 E132.73127
G1 X141.636 Y102.377 E132.89689
G1 X69.373 Y102.377 E146.03431
G1 X69.373 Y103.288 E146.19993
G1 X141.636 Y103.288 E159.33735
G1 X141.636 Y104.199 E159.50296
G1 X69.373 Y104.199 E172.64039
G1 X69.373 Y105.11 E172.806
G1 X141.636 Y105.11 E185.94342
G1 X141.636 Y106.021 E186.10904
G1 X69.373 Y106.021 E199.24646
G1 X69.373 Y106.932 E199.41208
G1 X141.636 Y106.932 E212.5495
G1 X141.636 Y107.843 E212.71512
G1 X69.373 Y107.843 E225.85254
G1 X69.373 Y108.754 E226.01816
G1 X141.636 Y108.754 E239.15558
G1 X141.636 Y109.665 E239.32119
G1 X69.373 Y109.665 E252.45862
G1 X69.373 Y110.576 E252.62423
G1 X141.636 Y110.576 E265.76165
G1 X141.636 Y111.487 E265.92727
G1 X69.373 Y111.487 E279.06469
G1 X69.373 Y112.398 E279.23031
G1 X141.636 Y112.398 E292.36773
G1 X141.636 Y113.309 E292.53335
G1 X69.373 Y113.309 E305.67077
G1 X69.373 Y114.22 E305.83638
G1 X141.636 Y114.22 E318.97381
G1 X141.636 Y115.131 E319.13942
G1 X69.373 Y115.131 E332.27684
G1 X69.373 Y116.042 E332.44246
G1 X141.636 Y116.042 E345.57988
G1 X141.636 Y116.953 E345.7455
G1 X69.373 Y116.953 E358.88292
G1 X69.373 Y117.864 E359.04854
G1 X141.636 Y117.864 E372.18596
G1 X141.636 Y118.775 E372.35158
G1 X69.373 Y118.775 E385.489
G1 X69.373 Y119.686 E385.65461
G1 X141.636 Y119.686 E398.79204
G1 X141.636 Y120.597 E398.95765
G1 X69.373 Y120.597 E412.09507
G1 X69.373 Y121.508 E412.26069
G1 X141.636 Y121.508 E425.39811
G1 X141.636 Y122.418 E425.56373
G1 X69.373 Y122.418 E438.70115
G1 X69.373 Y123.329 E438.86677
G1 X141.636 Y123.329 E452.00419
G1 X141.636 Y124.24 E452.16981
G1 X69.373 Y124.24 E465.30723
G1 X69.373 Y125.151 E465.47284
G1 X141.636 Y125.151 E478.61027
G1 X141.636 Y125.721 E478.71377
G1 X141.295 Y126.062 E478.80161
G1 X69.16 Y126.062 E491.91552
;LAYER_CHANGE
;Z:0.56
;HEIGHT:0.08
TIMELAPSE_TAKE_FRAME
G92 E0
G10 ; retract
; stop printing object smart_compact_temp_calibration id:0 copy 0
EXCLUDE_OBJECT_END NAME=smart_compact_temp_calibration_id_0_copy_0
G1 Z0.56 F10500
M140 S85 ; set bed temperature
G92 E0
; printing object smart_compact_temp_calibration id:0 copy 0
EXCLUDE_OBJECT_START NAME=smart_compact_temp_calibration_id_0_copy_0
G1 X139.927 Y125.104
G11 ; unretract
G92 E0
;TYPE:Support material interface
;WIDTH:0.6
G1 F1800
G1 X139.927 Y94.946 E0.58461
G1 X139.344 Y94.946 E0.59591
G1 X139.344 Y124.854 E1.17567
G1 X138.761 Y124.854 E1.18697
G1 X138.761 Y94.946 E1.76672
G1 X138.178 Y94.946 E1.77802
G1 X138.178 Y124.854 E2.35778
G1 X137.596 Y124.854 E2.36908
G1 X137.596 Y94.946 E2.94883
G1 X137.013 Y94.946 E2.96013
G1 X137.013 Y124.854 E3.53989
G1 X136.43 Y124.854 E3.55119
G1 X136.43 Y94.946 E4.13094
G1 X135.847 Y94.946 E4.14224
G1 X135.847 Y124.854 E4.722
G1 X135.264 Y124.854 E4.7333
G1 X135.264 Y94.946 E5.31305
G1 X134.681 Y94.946 E5.32435
G1 X134.681 Y124.854 E5.90411
G1 X134.099 Y124.854 E5.91541
G1 X134.099 Y94.946 E6.49516
G1 X133.516 Y94.946 E6.50646
G1 X133.516 Y124.854 E7.08622
G1 X132.933 Y124.854 E7.09752
G1 X132.933 Y94.946 E7.67727
G1 X132.35 Y94.946 E7.68857
G1 X132.35 Y124.854 E8.26833
G1 X131.767 Y124.854 E8.27963
G1 X131.767 Y94.946 E8.85938
G1 X131.184 Y94.946 E8.87068
G1 X131.184 Y124.854 E9.45044
G1 X130.602 Y124.854 E9.46174
G1 X130.602 Y94.946 E10.04149
G1 X130.019 Y94.946 E10.05279
G1 X130.019 Y124.854 E10.63255
G1 X129.436 Y124.854 E10.64384
G1 X129.436 Y94.946 E11.2236
G1 X128.853 Y94.946 E11.2349
G1 X128.853 Y124.854 E11.81466
G1 X128.27 Y124.854 E11.82595
G1 X128.27 Y94.946 E12.40571
G1 X127.687 Y94.946 E12.41701
G1 X127.687 Y124.854 E12.99677
G1 X127.105 Y124.854 E13.00806
G1 X127.105 Y94.946 E13.58782
G1 X126.522 Y94.946 E13.59912
G1 X126.522 Y124.854 E14.17888
G1 X125.939 Y124.854 E14.19017
G1 X125.939 Y94.946 E14.76993
G1 X125.356 Y94.946 E14.78123
G1 X125.356 Y124.854 E15.36099
G1 X124.773 Y124.854 E15.37228
G1 X124.773 Y94.946 E15.95204
G1 X124.19 Y94.946 E15.96334
G1 X124.19 Y124.854 E16.54309
G1 X123.608 Y124.854 E16.55439
G1 X123.608 Y94.946 E17.13415
G1 X123.025 Y94.946 E17.14545
G1 X123.025 Y124.854 E17.7252
G1 X122.442 Y124.854 E17.7365
G1 X122.442 Y94.946 E18.31626
G1 X121.859 Y94.946 E18.32756
G1 X121.859 Y124.854 E18.90731
G1 X121.276 Y124.854 E18.91861
G1 X121.276 Y94.946 E19.49837
G1 X120.693 Y94.946 E19.50967
G1 X120.693 Y124.854 E20.08942
G1 X120.111 Y124.854 E20.10072
G1 X120.111 Y94.946 E20.68048
G1 X119.528 Y94.946 E20.69178
G1 X119.528 Y124.854 E21.27153
G1 X118.945 Y124.854 E21.28283
G1 X118.945 Y94.946 E21.86259
G1 X118.362 Y94.946 E21.87389
G1 X118.362 Y124.854 E22.45364
G1 X117.779 Y124.854 E22.46494
G1 X117.779 Y94.946 E23.0447
G1 X117.196 Y94.946 E23.056
G1 X117.196 Y124.854 E23.63575
G1 X116.614 Y124.854 E23.64705
G1 X116.614 Y94.946 E24.22681
G1 X116.031 Y94.946 E24.23811
G1 X116.031 Y124.854 E24.81786
G1 X115.448 Y124.854 E24.82916
G1 X115.448 Y94.946 E25.40892
G1 X114.865 Y94.946 E25.42021
G1 X114.865 Y124.854 E25.99997
G1 X114.282 Y124.854 E26.01127
G1 X114.282 Y94.946 E26.59103
G1 X113.699 Y94.946 E26.60232
G1 X113.699 Y124.854 E27.18208
G1 X113.117 Y124.854 E27.19338
G1 X113.117 Y94.946 E27.77314
G1 X112.534 Y94.946 E27.78443
G1 X112.534 Y124.854 E28.36419
G1 X111.951 Y124.854 E28.37549
G1 X111.951 Y94.946 E28.95525
G1 X111.368 Y94.946 E28.96654
G1 X111.368 Y124.854 E29.5463
G1 X110.785 Y124.854 E29.5576
G1 X110.785 Y94.946 E30.13736
G1 X110.203 Y94.946 E30.14865
G1 X110.203 Y124.854 E30.72841
G1 X109.62 Y124.854 E30.73971
G1 X109.62 Y94.946 E31.31946
G1 X109.037 Y94.946 E31.33076
G1 X109.037 Y124.854 E31.91052
G1 X108.454 Y124.854 E31.92182
G1 X108.454 Y94.946 E32.50157
G1 X107.871 Y94.946 E32.51287
G1 X107.871 Y124.854 E33.09263
G1 X107.288 Y124.854 E33.10393
G1 X107.288 Y94.946 E33.68368
G1 X106.706 Y94.946 E33.69498
G1 X106.706 Y124.854 E34.27474
G1 X106.123 Y124.854 E34.28604
G1 X106.123 Y94.946 E34.86579
G1 X105.54 Y94.946 E34.87709
G1 X105.54 Y124.854 E35.45685
G1 X104.957 Y124.854 E35.46815
G1 X104.957 Y94.946 E36.0479
G1 X104.374 Y94.946 E36.0592
G1 X104.374 Y124.854 E36.63896
G1 X103.791 Y124.854 E36.65026
G1 X103.791 Y94.946 E37.23001
G1 X103.209 Y94.946 E37.24131
G1 X103.209 Y124.854 E37.82107
G1 X102.626 Y124.854 E37.83237
G1 X102.626 Y94.946 E38.41212
G1 X102.043 Y94.946 E38.42342
G1 X102.043 Y124.854 E39.00318
G1 X101.46 Y124.854 E39.01448
G1 X101.46 Y94.946 E39.59423
G1 X100.877 Y94.946 E39.60553
G1 X100.877 Y124.854 E40.18529
G1 X100.294 Y124.854 E40.19659
G1 X100.294 Y94.946 E40.77634
G1 X99.712 Y94.946 E40.78764
G1 X99.712 Y124.854 E41.3674
G1 X99.129 Y124.854 E41.37869
G1 X99.129 Y94.946 E41.95845
G1 X98.546 Y94.946 E41.96975
G1 X98.546 Y124.854 E42.54951
G1 X97.963 Y124.854 E42.5608
G1 X97.963 Y94.946 E43.14056
G1 X97.38 Y94.946 E43.15186
G1 X97.38 Y124.854 E43.73162
G1 X96.797 Y124.854 E43.74291
G1 X96.797 Y94.946 E44.32267
G1 X96.215 Y94.946 E44.33397
G1 X96.215 Y124.854 E44.91373
G1 X95.632 Y124.854 E44.92502
G1 X95.632 Y94.946 E45.50478
G1 X95.049 Y94.946 E45.51608
G1 X95.049 Y124.854 E46.09584
G1 X94.466 Y124.854 E46.10713
G1 X94.466 Y94.946 E46.68689
G1 X93.883 Y94.946 E46.69819
G1 X93.883 Y124.854 E47.27794
G1 X93.3 Y124.854 E47.28924
G1 X93.3 Y94.946 E47.869
G1 X92.718 Y94.946 E47.8803
G1 X92.718 Y124.854 E48.46005
G1 X92.135 Y124.854 E48.47135
G1 X92.135 Y94.946 E49.05111
G1 X91.552 Y94.946 E49.06241
G1 X91.552 Y124.854 E49.64216
G1 X90.969 Y124.854 E49.65346
G1 X90.969 Y94.946 E50.23322
G1 X90.386 Y94.946 E50.24452
G1 X90.386 Y124.854 E50.82427
G1 X89.803 Y124.854 E50.83557
G1 X89.803 Y94.946 E51.41533
G1 X89.221 Y94.946 E51.42663
G1 X89.221 Y124.854 E52.00638
G1 X88.638 Y124.854 E52.01768
G1 X88.638 Y94.946 E52.59744
G1 X88.055 Y94.946 E52.60874
G1 X88.055 Y124.854 E53.18849
G1 X87.472 Y124.854 E53.19979
G1 X87.472 Y94.946 E53.77955
G1 X86.889 Y94.946 E53.79085
G1 X86.889 Y124.854 E54.3706
G1 X86.306 Y124.854 E54.3819
G1 X86.306 Y94.946 E54.96166
G1 X85.724 Y94.946 E54.97296
G1 X85.724 Y124.854 E55.55271
G1 X85.141 Y124.854 E55.56401
G1 X85.141 Y94.946 E56.14377
G1 X84.558 Y94.946 E56.15507
G1 X84.558 Y124.854 E56.73482
G1 X83.975 Y124.854 E56.74612
G1 X83.975 Y94.946 E57.32588
G1 X83.392 Y94.946 E57.33717
G1 X83.392 Y124.854 E57.91693
G1 X82.809 Y124.854 E57.92823
G1 X82.809 Y94.946 E58.50799
G1 X82.227 Y94.946 E58.51928
G1 X82.227 Y124.854 E59.09904
G1 X81.644 Y124.854 E59.11034
G1 X81.644 Y94.946 E59.6901
G1 X81.061 Y94.946 E59.70139
G1 X81.061 Y124.854 E60.28115
G1 X80.478 Y124.854 E60.29245
G1 X80.478 Y94.946 E60.87221
G1 X79.895 Y94.946 E60.8835
